src/lib/packages/icons/src/assets/filled/coffee-bean.svg

<svg width="24" height="24" viewBox="0 0 24 24" fill="none" xmlns="http://www.w3.org/2000/svg">
<path d="M4.09998 17.9401C2.04998 14.7201 2.92001 9.85011 6.38001 6.39011C9.80001 2.97011 14.59 2.08009 17.81 4.02009C18.16 4.63009 18.31 5.14009 18.33 5.21009C18.54 5.88009 18.44 6.5801 18.04 7.3101C17.09 9.0101 14.59 10.6101 11.84 11.2901C8.64003 12.0801 5.82999 13.9201 4.67999 15.9901C4.31999 16.6401 4.14 17.3001 4.12 17.9501L4.09998 17.9401ZM19.91 6.0901C19.88 6.7401 19.7 7.40011 19.34 8.04011C18.18 10.1101 15.37 11.9601 12.19 12.7401C9.42 13.4301 6.91998 15.0201 5.97998 16.7101C5.57998 17.4301 5.48001 18.1401 5.70001 18.8101C5.72001 18.8801 5.86002 19.3901 6.21002 19.9901C9.43002 21.9301 14.21 21.0301 17.63 17.6101C21.09 14.1501 21.96 9.29009 19.93 6.08009L19.91 6.0901Z" fill="currentColor"/>
</svg>

<svg xmlns="http://www.w3.org/2000/svg" width="24" height="24" fill="none"><path fill="currentColor" d="M4.1 17.94C2.05 14.72 2.92 9.85 6.38 6.39c3.42-3.42 8.21-4.31 11.43-2.37.35.61.5 1.12.52 1.19.21.67.11 1.37-.29 2.1-.95 1.7-3.45 3.3-6.2 3.98-3.2.79-6.01 2.63-7.16 4.7-.36.65-.54 1.31-.56 1.96l-.02-.01ZM19.91 6.09c-.03.65-.21 1.31-.57 1.95-1.16 2.07-3.97 3.92-7.15 4.7-2.77.69-5.27 2.28-6.21 3.97-.4.72-.5 1.43-.28 2.1.02.07.16.58.51 1.18 3.22 1.94 8 1.04 11.42-2.38 3.46-3.46 4.33-8.32 2.3-11.53l-.02.01Z"/></svg>
